img/footer__fb.svg

<svg width="30" height="30" viewBox="0 0 30 30" fill="none" xmlns="http://www.w3.org/2000/svg">
<path d="M0 15C0 6.71573 6.71573 0 15 0C23.2843 0 30 6.71573 30 15C30 23.2843 23.2843 30 15 30C6.71573 30 0 23.2843 0 15Z" fill="#6B6868"/>
<path d="M13.6713 7.575C14.313 6.97917 15.2296 6.75 16.1005 6.75H18.8505V9.6375H17.063C16.6963 9.59167 16.3296 9.9125 16.238 10.2792V12.2042H18.8505C18.8046 13.1208 18.6671 14.0833 18.5296 15H16.238V23.25H12.8463V15H11.1963V12.25H12.8463V9.54583C12.8921 8.76667 13.1671 8.03333 13.6713 7.575Z" fill="white"/>
</svg>

<svg width="30" height="30" fill="none" xmlns="http://www.w3.org/2000/svg"><path d="M0 15C0 6.716 6.716 0 15 0c8.284 0 15 6.716 15 15 0 8.284-6.716 15-15 15-8.284 0-15-6.716-15-15z" fill="#6B6868"/><path d="M13.671 7.575c.642-.596 1.559-.825 2.43-.825h2.75v2.887h-1.788c-.367-.045-.733.275-.825.642v1.925h2.613c-.046.917-.184 1.88-.321 2.796h-2.292v8.25h-3.392V15h-1.65v-2.75h1.65V9.546c.046-.78.321-1.513.825-1.971z" fill="#fff"/></svg>
